svgs/thin/bag-shopping.svg

<svg xmlns="http://www.w3.org/2000/svg" viewBox="0 0 448 512"><!--! Font Awesome Pro 6.4.2 by @fontawesome - https://fontawesome.com License - https://fontawesome.com/license (Commercial License) Copyright 2023 Fonticons, Inc. --><path d="M144 96v32H304V96c0-44.2-35.8-80-80-80s-80 35.8-80 80zm-16 48H48c-17.7 0-32 14.3-32 32V416c0 44.2 35.8 80 80 80H352c44.2 0 80-35.8 80-80V176c0-17.7-14.3-32-32-32H320v88c0 4.4-3.6 8-8 8s-8-3.6-8-8V144H144v88c0 4.4-3.6 8-8 8s-8-3.6-8-8V144zm0-16V96c0-53 43-96 96-96s96 43 96 96v32h80c26.5 0 48 21.5 48 48V416c0 53-43 96-96 96H96c-53 0-96-43-96-96V176c0-26.5 21.5-48 48-48h80z"/></svg>

<svg xmlns="http://www.w3.org/2000/svg" viewBox="0 0 448 512"><!--! Font Awesome Pro 6.1.1 by @fontawesome - https://fontawesome.com License - https://fontawesome.com/license (Commercial License) Copyright 2022 Fonticons, Inc. --><path d="M128 128V96C128 42.98 170.1 0 224 0C277 0 320 42.98 320 96V128H400C426.5 128 448 149.5 448 176V416C448 469 405 512 352 512H96C42.98 512 0 469 0 416V176C0 149.5 21.49 128 48 128H128zM144 128H304V96C304 51.82 268.2 16 224 16C179.8 16 144 51.82 144 96V128zM48 144C30.33 144 16 158.3 16 176V416C16 460.2 51.82 496 96 496H352C396.2 496 432 460.2 432 416V176C432 158.3 417.7 144 400 144H320V232C320 236.4 316.4 240 312 240C307.6 240 304 236.4 304 232V144H144V232C144 236.4 140.4 240 136 240C131.6 240 128 236.4 128 232V144H48z"/></svg>
